X:1
T:Princethorpe, 11.11.11.11
T:Princethorpe, 11.11.11.11
T:William Pitts, 1871
T:Public Domain Courtesy of the Cyber Hymnal™
C:William Pitts, 1871
Z:Public Domain
Z:Courtesy of the Cyber Hymnal™
%%score ( 1 2 ) ( 3 4 )
L:1/8
Q:1/4=113
M:4/4
K:F
V:1 treble 
V:2 treble 
V:3 bass 
V:4 bass 
V:1
 [FA]2 F2 [EB]2 [EG]2 | c3 z B [FA]4 | [FG]2 (AB) [FA]2 [EG]2 | F8 | [FA]2 F2 [EB]2 [EG]2 | %5
 ([Fc]3 [Ed]) [Fc]4 | (A=B) [Gc]2 [Fc]2 [FB]2 | [Ec]8 | [Ec]2 [EG]2 (GA) [EB]2 | A3 (z G) F4 | %10
 [Fd]2 [Ac]2 [GB]2 [^FA]2 | z4 x8 | [FA]2 F2 [EB]2 [EG]2 | c3 (z B) [FA]4 | %14
 [FG]2 (AB) [FA]2 [EG]2 | F8 |] %16
V:2
 x2 F2 x4 | F2 E2 x5 | x2 F2 x4 | F8 | x2 F2 x4 | x8 | F2 x6 | x8 | x4 E2 x2 | (F2 E2 F4) x | x8 | %11
 G8 E4 | x2 F2 x4 | F2 E2 x5 | x2 F2 x4 | F8 |] %16
V:3
 [F,C]2 [A,C]2 [G,C]2 [B,C]2 | C4 [F,C]4 x | [B,,D]2 ([A,,C][G,,B,]) [C,C]2 [C,B,]2 | [F,A,]8 | %4
 [F,C]2 [A,C]2 [G,C]2 [B,C]2 | C4 [A,C]4 | [F,C]2 [E,G,]2 [D,A,]2 [G,,G,]2 | [C,G,]8 | %8
 [C,C]2 [B,C]2 D2 [G,C]2 | ([F,C]2 [C,B,]2) [D,A,]4 x | [B,,B,]2 [C,_E]2 [D,D]2 [D,C]2 | B,8 x4 | %12
 [F,A,]2 [A,C]2 [G,C]2 [B,C]2 | C4 [F,C]4 x | [B,,D]2 ([A,,C][G,,B,]) [C,C]2 [C,B,]2 | %15
 [F,,F,A,]8 |] %16
V:4
 x8 | (A,2 G,2) x5 | x8 | x8 | x8 | (A,3 B,) x4 | x8 | x8 | x4 (B,A,) x2 | x9 | x8 | %11
 (G,,4 C,4) x4 | x8 | (A,2 G,2) x5 | x8 | x8 |] %16

